X: 42269
T: Weasel, The
R: reel
M: 4/4
K: Gmajor
|:D2 BD EDBD|BdGA Bd d2|edea e2 dB|ABGB ABGE|
D2 BD EDBD|BdGA Bd d2|edea e2 dB|ABGA BG G2:|
|:gdBd eaed|BABd e2 ed|eaed BdeB|ABGB ABGE|
D2 BD ED D2|BdGA Bd d2|edea e2 dB|ABGA BG G2:|

